X:34
M:6/8
L:1/8
Q:3/8=70
K:C
E/F/|Gcc c>de|GEE E2 E/F/|Gcc c>de/E/|EDD D2 E/F/|Gcc c>de|
|:(3c/B/A/|GEE cEE|GEE E2 (3c/B/A/|GEE cEE|DDD D2 (3c/B/A/|
gee c'ee|c/B/c/d/e/f/ g2 g/4a/4g/4f/4|e>dc/B/ cBA|GEE E2:|

